X: 122
T:Little Rabbit
M:4/4
L:1/8
Q:180
C:Traditional
S:Transcribed from Richard Greene version by S.C.
R:Reel
K:A
((3efg|:"A"a)eae fece|aeae "E"b2 ((3efg|"A"a)eae "D"fgaf|[1"A"e2 c2 c2 (
(3efg:|[2"A"e2 c2 c2 e-f||!
e2 cA BA e-f|ecBA c2 e-f|e2 cA BA af|[1"E"ec B2 "A"A2 e-f:|[2"E" ec B2 A
2 cB||!
A2 B-A cAB-A|A2 B-A cAB-c|A2 B-A "D"cAf-a|[1"E"ec B2 "A"A2 c-B:|[2"E"ec
B2 "A"A2 c-d||!
"A"e2 e2 "D"f3 f-|"A"e2 c4 c-d |e2e2 "D"f3 f-|"A"e2 c4 c-d|e2e2"D"f3 f-|
"A"e2 c4 c-B|A2 F2 "E"E3 E-|[1"A"F2 A4 c-d:|!
[2 "A"F2 A4 c-B|:"A"A2 F2 E3 E |e2 c4 c-B|A2 F2 "E"E3 E-|[1"A"F2 A4 c-B:
|[2"A"F2 A6||
